X: 3
T: Old Joe
M: C|
Z: Transcribed from "Frets", with slight changes, by Debby Knight
R: reel
K: C
|:\
"C"c2-cd "C7"cAGc | "F"AGAB "F#dim7"cBcd |\
[1,3 "C/G"eg2e "A7"ggag | "D7"ega_b "G7"aged :|\
[2,4 "G"ega_b "Am"agea | "G/B"gedB "C"c4 :|
|:\
"Am"A,4 C4 | EA2_E DCA,G, | "Am"A,4 C4 | "F7"_E3E DCA,G, ||\
"Am"A,2A,2 C4 | EA2_E DCA,C | "C"c2cA "F"GcAG | "G"ECDB, "C"C4 :|
% text 08/28/10

